packages/components/src/components/icon/cashier/ic-cashier-clipboard.svg

<svg width="13" height="14" viewBox="0 0 13 14" fill="none" xmlns="http://www.w3.org/2000/svg">
<path d="M9 2C9.82843 2 10.5 2.67157 10.5 3.5V12.5C10.5 13.3284 9.82843 14 9 14H2C1.17157 14 0.5 13.3284 0.5 12.5V3.5C0.5 2.67157 1.17157 2 2 2H9ZM9 3H2C1.72386 3 1.5 3.22386 1.5 3.5V12.5C1.5 12.7761 1.72386 13 2 13H9C9.27614 13 9.5 12.7761 9.5 12.5V3.5C9.5 3.22386 9.27614 3 9 3ZM10 0C11.3255 0 12.41 1.03154 12.4947 2.33562L12.5 2.5V10.5C12.5 10.7761 12.2761 11 12 11C11.7545 11 11.5504 10.8231 11.5081 10.5899L11.5 10.5V2.5C11.5 1.7203 10.9051 1.07955 10.1445 1.00687L10 1H4C3.72386 1 3.5 0.776142 3.5 0.5C3.5 0.25454 3.67688 0.0503916 3.91012 0.00805567L4 0H10Z" fill="#333333"/>
</svg>

<svg width="13" height="14" fill="none" xmlns="http://www.w3.org/2000/svg"><path d="M9 2a1.5 1.5 0 0 1 1.5 1.5v9A1.5 1.5 0 0 1 9 14H2a1.5 1.5 0 0 1-1.5-1.5v-9A1.5 1.5 0 0 1 2 2h7zm0 1H2a.5.5 0 0 0-.5.5v9a.5.5 0 0 0 .5.5h7a.5.5 0 0 0 .5-.5v-9A.5.5 0 0 0 9 3zm1-3a2.5 2.5 0 0 1 2.495 2.336l.005.164v8a.5.5 0 0 1-.992.09l-.008-.09v-8a1.5 1.5 0 0 0-1.355-1.493L10 1H4a.5.5 0 0 1-.09-.992L4 0h6z" fill="#333"/></svg>
